X: 37540
T: Slopes Of Sliabh Luachra, The
R: jig
M: 6/8
K: Adorian
|:ABc AGE|EDE G3|A2A ABA|Bcd efg|
ABA AGE|EDE GAB|cBA BAG|1 A2A A3:|2 A2A ABd||
|:e2a a2g|a2b aga|e2f g2f|gba ged|
e2a a2g|a2b aga|efg edB|A2B ABd:|
e2a a2g|e2f g3|B2B B2A|G2B dBd|
e2a aga|e2f gfg|a2g efg|aea a2g|
e2a a2g|e2f g3|B2B B2A|G2B d2B|
cBA BAG|A2E E2D|GAB dBG|A2B c2B||

